X: 2084
T: Ajde Lepa Maro
R: Kolo
O: Croatia
B:
D:
Z: \251 1998 by John Chambers <jc@eddie.mit.edu> http://eddie.mit.edu/~jc/music/
M: 2/4
L: 1/8
K: D
[| "G"[bg][af] [ge][fd] \
| "A"[g3e] [ge] \
| "D"[fd][af] [fd][dB] \
| "A"[e2A] [a2c] \
| "G"[bg][af] [ge][fd] \
| "A"[g3e] [ge] \
| "D"[fd][af] [fd][dB] \
| "A"[e2A] [eA]z |]
[| "D"[dA][dA] [cA][dB] \
| "A"[e3c] [fd] \
| [ge][ec] "E7"[fd][dB] \
| "A"[e2A] [a2c] \
| "D"[dA][dA] [cA][dB] \
| "A"[e3c] [fd] \
| [ge][ec] "E7"[fd][dB] \
| "A"[e2A] [eA]z |]
K: G
[| "C"[ec][dB] [cA][BG] \
| "D"[c3A] [cA] \
| "G"[BG][dB] [BG][GE] \
| "D"[A2D] [d2F] \
| "C"[ec][dB] [cA][BG] \
| "D"[c3A] [cA] \
| "G"[BG][dB] [BG][GE] \
| "D"[A2D] [AD]z |]
[| "G"[GD][GD] [FD][GE] \
| "D"[A3F] [BG] \
| [cA][AF] "A7"[BG][GE] \
| "D"[A2D] [d2F] \
| "G"[GD][GD] [FD][GE] \
| "D"[A3F] [BG] \
| [cA][AF] "A7"[BG][GE] \
| "D"[A2D] [AD]z |]
